src/assets/img/nav-icon3.svg

<svg xmlns="http://www.w3.org/2000/svg"  viewBox="0 0 80 80" width="800px" height="800px"><path d="M 18.980469 6.9609375 A 1.0001 1.0001 0 0 0 18.199219 7.3828125 A 1.0001 1.0001 0 0 0 18.019531 7.7695312 L 4.0625 45.654297 A 1.0001 1.0001 0 0 0 4.4042969 46.802734 L 39.199219 72.650391 A 1.0001 1.0001 0 0 0 40 73.037109 A 1.0001 1.0001 0 0 0 40.060547 73.035156 A 1.0001 1.0001 0 0 0 40.066406 73.035156 A 1.0001 1.0001 0 0 0 40.802734 72.648438 L 75.595703 46.802734 A 1.0001 1.0001 0 0 0 75.9375 45.654297 L 61.978516 7.765625 A 1.0001 1.0001 0 0 0 61.15625 7 A 1.0001 1.0001 0 0 0 61.027344 6.9863281 A 1.0001 1.0001 0 0 0 61.011719 6.9863281 A 1.0001 1.0001 0 0 0 61.005859 6.9863281 A 1.0001 1.0001 0 0 0 60.996094 6.9863281 A 1.0001 1.0001 0 0 0 60.011719 7.8027344 L 51.744141 33 L 28.255859 33 L 20.011719 7.875 A 1.0001 1.0001 0 0 0 18.980469 6.9609375 z M 18.945312 11.039062 L 26.150391 33 L 10.855469 33 L 18.945312 11.039062 z M 61.054688 11.039062 L 69.144531 33 L 53.849609 33 L 61.054688 11.039062 z M 10.117188 35 L 26.806641 35 L 37.583984 67.84375 C 37.338695 67.823711 37.087093 67.887713 36.880859 68.050781 C 36.79637 68.11739 36.736621 68.201749 36.679688 68.287109 L 6.1972656 45.642578 L 10.117188 35 z M 28.912109 35 L 51.087891 35 L 40 68.792969 L 28.912109 35 z M 53.193359 35 L 69.882812 35 L 73.802734 45.642578 L 43.615234 68.068359 C 43.551467 67.948255 43.464923 67.839106 43.349609 67.75 C 43.102256 67.553962 42.790787 67.509278 42.503906 67.576172 L 53.193359 35 z M 67.40625 36.146484 C 67.152625 36.177734 66.910234 36.304531 66.740234 36.519531 C 66.389234 36.949531 66.468437 37.579922 66.898438 37.919922 C 67.079437 38.069922 67.300531 38.140625 67.519531 38.140625 C 67.819531 38.140625 68.108828 38.009766 68.298828 37.759766 C 68.648828 37.329766 68.568672 36.699609 68.138672 36.349609 C 67.924172 36.179609 67.659875 36.115234 67.40625 36.146484 z M 12.615234 36.171875 C 12.360234 36.141875 12.095859 36.210859 11.880859 36.380859 C 11.450859 36.720859 11.370703 37.349063 11.720703 37.789062 C 11.910703 38.039062 12.21 38.169922 12.5 38.169922 C 12.72 38.169922 12.939141 38.099219 13.119141 37.949219 C 13.549141 37.609219 13.629062 36.980781 13.289062 36.550781 C 13.114062 36.330781 12.870234 36.201875 12.615234 36.171875 z M 64.925781 39.287109 C 64.672031 39.318359 64.429766 39.445156 64.259766 39.660156 C 63.909766 40.090156 63.989922 40.720547 64.419922 41.060547 C 64.608922 41.210547 64.818062 41.279297 65.039062 41.279297 C 65.339063 41.279297 65.630078 41.150391 65.830078 40.900391 C 66.170078 40.460391 66.090156 39.830234 65.660156 39.490234 C 65.445156 39.320234 65.179531 39.255859 64.925781 39.287109 z M 15.113281 39.341797 C 14.859531 39.313047 14.595859 39.380781 14.380859 39.550781 C 13.950859 39.890781 13.870938 40.519219 14.210938 40.949219 C 14.410938 41.199219 14.7 41.330078 15 41.330078 C 15.22 41.330078 15.439141 41.259141 15.619141 41.119141 C 16.049141 40.779141 16.129297 40.150937 15.779297 39.710938 C 15.609297 39.495937 15.367031 39.370547 15.113281 39.341797 z M 62.445312 42.425781 C 62.191688 42.457031 61.949297 42.585781 61.779297 42.800781 C 61.438297 43.229781 61.509453 43.858219 61.939453 44.199219 C 62.130453 44.349219 62.349594 44.419922 62.558594 44.419922 C 62.858594 44.419922 63.149609 44.289062 63.349609 44.039062 C 63.689609 43.599063 63.609687 42.970859 63.179688 42.630859 C 62.965187 42.460859 62.698937 42.394531 62.445312 42.425781 z M 17.613281 42.505859 C 17.359531 42.474609 17.095859 42.540937 16.880859 42.710938 C 16.450859 43.059937 16.370938 43.679141 16.710938 44.119141 C 16.910937 44.369141 17.21 44.5 17.5 44.5 C 17.72 44.5 17.939141 44.428297 18.119141 44.279297 C 18.549141 43.939297 18.629297 43.310859 18.279297 42.880859 C 18.109297 42.665859 17.867031 42.537109 17.613281 42.505859 z M 59.966797 45.5625 C 59.711797 45.592625 59.470781 45.719953 59.300781 45.939453 C 58.960781 46.369453 59.030938 46.999844 59.460938 47.339844 C 59.649938 47.489844 59.870078 47.560547 60.080078 47.560547 C 60.380078 47.560547 60.669141 47.429688 60.869141 47.179688 C 61.209141 46.740688 61.140937 46.109531 60.710938 45.769531 C 60.490938 45.599531 60.221797 45.532375 59.966797 45.5625 z M 20.115234 45.671875 C 19.860234 45.642 19.595859 45.710859 19.380859 45.880859 C 18.950859 46.219859 18.870938 46.848297 19.210938 47.279297 C 19.410937 47.529297 19.71 47.660156 20 47.660156 C 20.22 47.660156 20.439141 47.589219 20.619141 47.449219 C 21.049141 47.109219 21.129062 46.480781 20.789062 46.050781 C 20.614062 45.830281 20.370234 45.70175 20.115234 45.671875 z M 57.486328 48.701172 C 57.231328 48.731297 56.988859 48.860078 56.818359 49.080078 C 56.478359 49.509078 56.550234 50.138516 56.990234 50.478516 C 57.170234 50.629516 57.390375 50.699219 57.609375 50.699219 C 57.899375 50.699219 58.188672 50.568594 58.388672 50.308594 C 58.728672 49.879594 58.659516 49.250156 58.228516 48.910156 C 58.009016 48.739656 57.741328 48.671047 57.486328 48.701172 z M 22.613281 48.841797 C 22.359531 48.813047 22.095859 48.880781 21.880859 49.050781 C 21.450859 49.389781 21.370703 50.018219 21.720703 50.449219 C 21.910703 50.699219 22.2 50.830078 22.5 50.830078 C 22.72 50.830078 22.939141 50.759141 23.119141 50.619141 C 23.549141 50.279141 23.629297 49.649938 23.279297 49.210938 C 23.109297 48.995937 22.867031 48.870547 22.613281 48.841797 z M 55.011719 51.84375 C 54.757969 51.873875 54.514844 52.001203 54.339844 52.220703 C 53.999844 52.649703 54.069766 53.279141 54.509766 53.619141 C 54.688766 53.769141 54.910859 53.839844 55.130859 53.839844 C 55.420859 53.839844 55.720156 53.710938 55.910156 53.460938 C 56.260156 53.020937 56.18 52.390781 55.75 52.050781 C 55.53 51.880781 55.265469 51.813625 55.011719 51.84375 z M 25.113281 52.001953 C 24.859531 51.972078 24.595859 52.040937 24.380859 52.210938 C 23.950859 52.559937 23.870938 53.188141 24.210938 53.619141 C 24.410937 53.869141 24.7 54 25 54 C 25.22 54 25.439141 53.929297 25.619141 53.779297 C 26.049141 53.439297 26.129297 52.810859 25.779297 52.380859 C 25.609297 52.160359 25.367031 52.031828 25.113281 52.001953 z M 52.535156 54.982422 C 52.280281 55.012547 52.034875 55.139875 51.859375 55.359375 C 51.519375 55.789375 51.598297 56.419766 52.029297 56.759766 C 52.209297 56.909766 52.429438 56.979469 52.648438 56.980469 C 52.938437 56.980469 53.240687 56.849609 53.429688 56.599609 C 53.780687 56.160609 53.700531 55.530453 53.269531 55.189453 C 53.054531 55.019453 52.790031 54.952297 52.535156 54.982422 z M 27.613281 55.171875 C 27.359531 55.142 27.095859 55.210859 26.880859 55.380859 C 26.450859 55.720859 26.370938 56.349063 26.710938 56.789062 C 26.910938 57.039062 27.21 57.169922 27.5 57.169922 C 27.72 57.169922 27.939141 57.098219 28.119141 56.949219 C 28.549141 56.609219 28.629297 55.980781 28.279297 55.550781 C 28.109297 55.330281 27.867031 55.20175 27.613281 55.171875 z M 50.056641 58.123047 C 49.802891 58.153047 49.560625 58.28 49.390625 58.5 C 49.040625 58.929 49.120781 59.558437 49.550781 59.898438 C 49.729781 60.049438 49.949922 60.119141 50.169922 60.119141 C 50.469922 60.119141 50.760937 59.978516 50.960938 59.728516 C 51.300938 59.299516 51.219062 58.670078 50.789062 58.330078 C 50.574062 58.160078 50.310391 58.093047 50.056641 58.123047 z M 30.115234 58.337891 C 29.860234 58.307891 29.595859 58.375781 29.380859 58.550781 C 28.950859 58.889781 28.870703 59.518219 29.220703 59.949219 C 29.410703 60.199219 29.71 60.330078 30 60.330078 C 30.22 60.330078 30.439141 60.259141 30.619141 60.119141 C 31.049141 59.769141 31.129062 59.149938 30.789062 58.710938 C 30.614062 58.495937 30.370234 58.367891 30.115234 58.337891 z M 47.576172 61.261719 C 47.322547 61.290469 47.080156 61.415859 46.910156 61.630859 C 46.559156 62.069859 46.638359 62.699062 47.068359 63.039062 C 47.259359 63.179062 47.479453 63.25 47.689453 63.25 C 47.990453 63.25 48.279516 63.119141 48.478516 62.869141 C 48.818516 62.439141 48.739594 61.810703 48.308594 61.470703 C 48.094094 61.300703 47.829797 61.232969 47.576172 61.261719 z M 32.613281 61.505859 C 32.359531 61.474609 32.095859 61.540937 31.880859 61.710938 C 31.450859 62.059937 31.370938 62.679141 31.710938 63.119141 C 31.910938 63.369141 32.2 63.5 32.5 63.5 C 32.72 63.5 32.939141 63.428297 33.119141 63.279297 C 33.549141 62.939297 33.629297 62.310859 33.279297 61.880859 C 33.109297 61.665859 32.867031 61.537109 32.613281 61.505859 z M 45.095703 64.400391 C 44.841953 64.429141 44.599688 64.554531 44.429688 64.769531 C 44.089687 65.209531 44.159844 65.839687 44.589844 66.179688 C 44.779844 66.318687 45.000937 66.390625 45.210938 66.390625 C 45.510937 66.390625 45.8 66.259766 46 66.009766 C 46.34 65.580766 46.269078 64.950375 45.830078 64.609375 C 45.615078 64.439375 45.349453 64.371641 45.095703 64.400391 z M 35.113281 64.671875 C 34.859531 64.642 34.595859 64.710859 34.380859 64.880859 C 33.950859 65.219859 33.870937 65.848297 34.210938 66.279297 C 34.410937 66.539297 34.7 66.669922 35 66.669922 C 35.22 66.669922 35.439141 66.598219 35.619141 66.449219 C 36.049141 66.109219 36.129297 65.480781 35.779297 65.050781 C 35.609297 64.830281 35.367031 64.70175 35.113281 64.671875 z M 41.982422 69.160156 C 42.003306 69.185055 42.021256 69.211275 42.044922 69.234375 L 41.931641 69.318359 L 41.982422 69.160156 z"/></svg>

<svg xmlns="http://www.w3.org/2000/svg" xmlns:xlink="http://www.w3.org/1999/xlink" viewBox="0,0,256,256" width="80px" height="80px"><g fill="#ffffff" fill-rule="nonzero" stroke="none" stroke-width="1" stroke-linecap="butt" stroke-linejoin="miter" stroke-miterlimit="10" stroke-dasharray="" stroke-dashoffset="0" font-family="none" font-weight="none" font-size="none" text-anchor="none" style="mix-blend-mode: normal"><g transform="scale(3.2,3.2)"><path d="M18.98047,6.96094c-0.31199,0.01098 -0.60095,0.16702 -0.78125,0.42188c-0.087,0.11449 -0.14829,0.24639 -0.17969,0.38672l-13.95703,37.88477c-0.15338,0.41625 -0.01423,0.8838 0.3418,1.14844l34.79492,25.84766c0.19178,0.24702 0.48807,0.3901 0.80078,0.38672c0.0202,-0.00004 0.04039,-0.00069 0.06055,-0.00195c0.00195,0.00001 0.00391,0.00001 0.00586,0c0.28995,-0.0159 0.55867,-0.15703 0.73633,-0.38672l34.79297,-25.8457c0.35603,-0.26464 0.49518,-0.73219 0.3418,-1.14844l-13.95898,-37.88867c-0.09129,-0.3996 -0.41718,-0.70304 -0.82227,-0.76562c-0.04263,-0.00734 -0.08569,-0.01191 -0.12891,-0.01367c-0.00521,-0.00004 -0.01042,-0.00004 -0.01562,0c-0.00195,-0.00001 -0.00391,-0.00001 -0.00586,0c-0.00325,-0.00002 -0.00651,-0.00002 -0.00977,0c-0.48198,-0.00062 -0.89585,0.34262 -0.98437,0.81641l-8.26758,25.19727h-23.48828l-8.24414,-25.125c-0.0455,-0.53069 -0.49894,-0.9326 -1.03125,-0.91406zM18.94531,11.03906l7.20508,21.96094h-15.29492zM61.05469,11.03906l8.08984,21.96094h-15.29492zM10.11719,35h16.68945l10.77734,32.84375c-0.24529,-0.02004 -0.49689,0.04396 -0.70312,0.20703c-0.08449,0.06661 -0.14424,0.15097 -0.20117,0.23633l-30.48242,-22.64453zM28.91211,35h22.17578l-11.08789,33.79297zM53.19336,35h16.68945l3.91992,10.64258l-30.1875,22.42578c-0.06377,-0.1201 -0.15031,-0.22925 -0.26562,-0.31836c-0.24735,-0.19604 -0.55882,-0.24072 -0.8457,-0.17383zM67.40625,36.14648c-0.25362,0.03125 -0.49602,0.15805 -0.66602,0.37305c-0.351,0.43 -0.2718,1.06039 0.1582,1.40039c0.181,0.15 0.40209,0.2207 0.62109,0.2207c0.3,0 0.5893,-0.13086 0.7793,-0.38086c0.35,-0.43 0.26984,-1.06016 -0.16016,-1.41016c-0.2145,-0.17 -0.4788,-0.23437 -0.73242,-0.20312zM12.61523,36.17188c-0.255,-0.03 -0.51937,0.03898 -0.73437,0.20898c-0.43,0.34 -0.51016,0.9682 -0.16016,1.4082c0.19,0.25 0.4893,0.38086 0.7793,0.38086c0.22,0 0.43914,-0.0707 0.61914,-0.2207c0.43,-0.34 0.50992,-0.96844 0.16992,-1.39844c-0.175,-0.22 -0.41883,-0.34891 -0.67383,-0.37891zM64.92578,39.28711c-0.25375,0.03125 -0.49601,0.15805 -0.66602,0.37305c-0.35,0.43 -0.26984,1.06039 0.16016,1.40039c0.189,0.15 0.39814,0.21875 0.61914,0.21875c0.3,0 0.59102,-0.12891 0.79102,-0.37891c0.34,-0.44 0.26008,-1.07016 -0.16992,-1.41016c-0.215,-0.17 -0.48063,-0.23437 -0.73437,-0.20312zM15.11328,39.3418c-0.25375,-0.02875 -0.51742,0.03898 -0.73242,0.20898c-0.43,0.34 -0.50992,0.96844 -0.16992,1.39844c0.2,0.25 0.48906,0.38086 0.78906,0.38086c0.22,0 0.43914,-0.07094 0.61914,-0.21094c0.43,-0.34 0.51016,-0.9682 0.16016,-1.4082c-0.17,-0.215 -0.41227,-0.34039 -0.66602,-0.36914zM62.44531,42.42578c-0.25362,0.03125 -0.49601,0.16 -0.66602,0.375c-0.341,0.429 -0.26984,1.05744 0.16016,1.39844c0.191,0.15 0.41014,0.2207 0.61914,0.2207c0.3,0 0.59101,-0.13086 0.79102,-0.38086c0.34,-0.44 0.26008,-1.0682 -0.16992,-1.4082c-0.2145,-0.17 -0.48075,-0.23633 -0.73438,-0.20508zM17.61328,42.50586c-0.25375,-0.03125 -0.51742,0.03508 -0.73242,0.20508c-0.43,0.349 -0.50992,0.9682 -0.16992,1.4082c0.2,0.25 0.49906,0.38086 0.78906,0.38086c0.22,0 0.43914,-0.0717 0.61914,-0.2207c0.43,-0.34 0.51016,-0.96844 0.16016,-1.39844c-0.17,-0.215 -0.41227,-0.34375 -0.66602,-0.375zM59.9668,45.5625c-0.255,0.03012 -0.49602,0.15745 -0.66602,0.37695c-0.34,0.43 -0.26984,1.06039 0.16016,1.40039c0.189,0.15 0.40914,0.2207 0.61914,0.2207c0.3,0 0.58906,-0.13086 0.78906,-0.38086c0.34,-0.439 0.2718,-1.07016 -0.1582,-1.41016c-0.22,-0.17 -0.48914,-0.23716 -0.74414,-0.20703zM20.11523,45.67188c-0.255,-0.02987 -0.51938,0.03898 -0.73437,0.20898c-0.43,0.339 -0.50992,0.96744 -0.16992,1.39844c0.2,0.25 0.49906,0.38086 0.78906,0.38086c0.22,0 0.43914,-0.07094 0.61914,-0.21094c0.43,-0.34 0.50992,-0.96844 0.16992,-1.39844c-0.175,-0.2205 -0.41883,-0.34903 -0.67383,-0.37891zM57.48633,48.70117c-0.255,0.03012 -0.49747,0.15891 -0.66797,0.37891c-0.34,0.429 -0.26812,1.05844 0.17188,1.39844c0.18,0.151 0.40014,0.2207 0.61914,0.2207c0.29,0 0.5793,-0.13063 0.7793,-0.39062c0.34,-0.429 0.27084,-1.05844 -0.16016,-1.39844c-0.2195,-0.1705 -0.48719,-0.23911 -0.74219,-0.20898zM22.61328,48.8418c-0.25375,-0.02875 -0.51742,0.03898 -0.73242,0.20898c-0.43,0.339 -0.51016,0.96744 -0.16016,1.39844c0.19,0.25 0.4793,0.38086 0.7793,0.38086c0.22,0 0.43914,-0.07094 0.61914,-0.21094c0.43,-0.34 0.51016,-0.9692 0.16016,-1.4082c-0.17,-0.215 -0.41227,-0.34039 -0.66602,-0.36914zM55.01172,51.84375c-0.25375,0.03012 -0.49688,0.15745 -0.67187,0.37695c-0.34,0.429 -0.27008,1.05844 0.16992,1.39844c0.179,0.15 0.40109,0.2207 0.62109,0.2207c0.29,0 0.5893,-0.12891 0.7793,-0.37891c0.35,-0.44 0.26984,-1.07016 -0.16016,-1.41016c-0.22,-0.17 -0.48453,-0.23716 -0.73828,-0.20703zM25.11328,52.00195c-0.25375,-0.02987 -0.51742,0.03898 -0.73242,0.20898c-0.43,0.349 -0.50992,0.9772 -0.16992,1.4082c0.2,0.25 0.48906,0.38086 0.78906,0.38086c0.22,0 0.43914,-0.0707 0.61914,-0.2207c0.43,-0.34 0.51016,-0.96844 0.16016,-1.39844c-0.17,-0.2205 -0.41227,-0.34903 -0.66602,-0.37891zM52.53516,54.98242c-0.25487,0.03012 -0.50028,0.15745 -0.67578,0.37695c-0.34,0.43 -0.26108,1.06039 0.16992,1.40039c0.18,0.15 0.40014,0.2197 0.61914,0.2207c0.29,0 0.59225,-0.13086 0.78125,-0.38086c0.351,-0.439 0.27084,-1.06916 -0.16016,-1.41016c-0.215,-0.17 -0.4795,-0.23716 -0.73437,-0.20703zM27.61328,55.17188c-0.25375,-0.02987 -0.51742,0.03898 -0.73242,0.20898c-0.43,0.34 -0.50992,0.9682 -0.16992,1.4082c0.2,0.25 0.49906,0.38086 0.78906,0.38086c0.22,0 0.43914,-0.0717 0.61914,-0.2207c0.43,-0.34 0.51016,-0.96844 0.16016,-1.39844c-0.17,-0.2205 -0.41227,-0.34903 -0.66602,-0.37891zM50.05664,58.12305c-0.25375,0.03 -0.49602,0.15695 -0.66602,0.37695c-0.35,0.429 -0.26984,1.05844 0.16016,1.39844c0.179,0.151 0.39914,0.2207 0.61914,0.2207c0.3,0 0.59101,-0.14062 0.79102,-0.39062c0.34,-0.429 0.25812,-1.05844 -0.17188,-1.39844c-0.215,-0.17 -0.47867,-0.23703 -0.73242,-0.20703zM30.11523,58.33789c-0.255,-0.03 -0.51938,0.03789 -0.73437,0.21289c-0.43,0.339 -0.51016,0.96744 -0.16016,1.39844c0.19,0.25 0.4893,0.38086 0.7793,0.38086c0.22,0 0.43914,-0.07094 0.61914,-0.21094c0.43,-0.35 0.50992,-0.9692 0.16992,-1.4082c-0.175,-0.215 -0.41883,-0.34305 -0.67383,-0.37305zM47.57617,61.26172c-0.25362,0.02875 -0.49602,0.15414 -0.66602,0.36914c-0.351,0.439 -0.2718,1.0682 0.1582,1.4082c0.191,0.14 0.41109,0.21094 0.62109,0.21094c0.301,0 0.59006,-0.13086 0.78906,-0.38086c0.34,-0.43 0.26108,-1.05844 -0.16992,-1.39844c-0.2145,-0.17 -0.4788,-0.23773 -0.73242,-0.20898zM32.61328,61.50586c-0.25375,-0.03125 -0.51742,0.03508 -0.73242,0.20508c-0.43,0.349 -0.50992,0.9682 -0.16992,1.4082c0.2,0.25 0.48906,0.38086 0.78906,0.38086c0.22,0 0.43914,-0.0717 0.61914,-0.2207c0.43,-0.34 0.51016,-0.96844 0.16016,-1.39844c-0.17,-0.215 -0.41227,-0.34375 -0.66602,-0.375zM45.0957,64.40039c-0.25375,0.02875 -0.49601,0.15414 -0.66602,0.36914c-0.34,0.44 -0.26984,1.07016 0.16016,1.41016c0.19,0.139 0.41109,0.21094 0.62109,0.21094c0.3,0 0.58906,-0.13086 0.78906,-0.38086c0.34,-0.429 0.26908,-1.05939 -0.16992,-1.40039c-0.215,-0.17 -0.48063,-0.23773 -0.73437,-0.20898zM35.11328,64.67188c-0.25375,-0.02988 -0.51742,0.03898 -0.73242,0.20898c-0.43,0.339 -0.50992,0.96744 -0.16992,1.39844c0.2,0.26 0.48906,0.39063 0.78906,0.39063c0.22,0 0.43914,-0.0717 0.61914,-0.2207c0.43,-0.34 0.51016,-0.96844 0.16016,-1.39844c-0.17,-0.2205 -0.41227,-0.34903 -0.66602,-0.37891zM41.98242,69.16016c0.02088,0.0249 0.03883,0.05112 0.0625,0.07422l-0.11328,0.08398z"></path></g></g></svg>
